symbolic/status/network-cellular-4g-symbolic.svg

<svg width="16" height="16" version="1.1" xmlns="http://www.w3.org/2000/svg">
 <path d="m2 0c-1.108 0-2 0.892-2 2v12c0 1.108 0.892 2 2 2h12c1.108 0 2-0.892 2-2v-12c0-1.108-0.892-2-2-2h-12zm0 3h2v4h1v-4h2v10h-2v-4h-1c-2 0-2-2-2-2v-4zm8 0h2c2 0 2 2 2 2v1h-2v-1h-2v6h2v-2h-1v-1.9688h3v3.9375s0 2.0312-2 2.0312h-2s-2 0-2-2v-6c0-2 2-2 2-2z" fill="#f8f8f2" stroke-linecap="round" stroke-linejoin="round" stroke-width="1.9994" style="paint-order:markers stroke fill"/>
</svg>

<svg xmlns="http://www.w3.org/2000/svg" width="16" height="16" version="1.1">
 <path style="fill:#dfdfdf" d="M 2 1 C 0.892 1 0 1.892 0 3 L 0 13 C 0 14.108 0.892 15 2 15 L 14 15 C 15.108 15 16 14.108 16 13 L 16 3 C 16 1.892 15.108 1 14 1 L 2 1 z M 2 3 L 4 3 L 4 7 L 5 7 L 5 3 L 7 3 L 7 13 L 5 13 L 5 9 L 4 9 C 2 9 2 7 2 7 L 2 3 z M 10 3 L 12 3 C 14 3 14 5 14 5 L 14 6 L 12 6 L 12 5 L 10 5 L 10 11 L 12 11 L 12 9 L 11 9 L 11 7.0312 L 14 7.0312 L 14 10.969 C 14 10.969 14 13 12 13 L 10 13 C 10 13 8 13 8 11 L 8 5 C 8 3 10 3 10 3 z"/>
</svg>
